X: 13290
T: Fjynnasvalsen
R: waltz
M: 3/4
K: Dmajor
"D"f3 f f2|fg fe dc|d2 c2 c2|"G"B3 c B2|
"A"c3 d e2|ef ed cB|A2 B2 B2|"D"A3 B A2|
F3 G A2|AB A2 F2|"G"G3 A B2|"Em"Bc B2 G2|
"A"c3 d e2|ef e2 c2|"D"d3 f af|d6:|
|:"D"f3 g a2|"Bm"d3 e f2|"G"B3 c d2|"Em"EF G2 E2|
"A"e3 f ge|cd e2 c2|"D"A3 B AG|FA df "A"a2|
"D"f3 g a2|"Bm"d3 e f2|"G"B3 c d2|"Em"EF G2 E2|
"A"e3 f ge|cd e2 c2|"D"d3 f af|d6:|

